X: 62
M:2/4
L:1/16
K:D
(uFG) |\
uA |\
dedc defe | dBAF GEE2 | dedc (de)fe | dBAF ADDA |
dedc defe | dBAF GEE2 | dedc (de)fe | dBAF ADD |]
uf |\
abaf defd | (ef)ge bee2 | abaf egfe | (dB)AF ADD2 |
abaf defd | (ef)ga bee2 | afge fded | cABc d2 |]


